X: 3261
T: Miss Baird of Saughtonhall's Hornpipe
C: by Nath. Gow
%R: triple hornpipe
B: Niel Gow & Sons "A Third Collection of Strathspey Reels, etc." v.3 p.26 #1
Z: 2022 John Chambers <jc:trillian.mit.edu>
M: 6/4
L: 1/4
K: A
% - - - - - - - - - -
V: 1 staves=2
|:\
(EA c).A.G.B | (EA c).A e2 | Tf>g aA GB | TFB (A/G/)F/E/ A2 :| (Ac a)c dB | (Ac e).c a2 |
Tf>g aA GB | TFB (A/G/)F/E/ A2 || (Ac a).c .f.B | (Ac e)c a2 | (f/g/a/).e/ d/c/B/A/ GB | TFB (A/G/)F/E/ A2 |]
% - - - - - - - - - -
% Voice 2 preserves the staff layout in the book.
V: 2 clef=bass middle=d
|:\
A2 a2 e2 | a2 A2 c2 | d2 cA e2 | d2 e2 A2 :| a2 A2 e2 | [a2A2] A2 c2 |
d2 cA c2 | d2 e2 A2 || a2 a2 d2 | c2 A2 c2 | d2 c2 e2 | d2 e2 A2 |]


